app/dist/common/images/kyushu-electric-power.svg

<svg height="18" viewBox="0 0 18 18" width="18" xmlns="http://www.w3.org/2000/svg"><path d="m0 0h18v18h-18z" fill="#f0f3fa"/><path d="m5.84 4 1.84 1.37-1.85 2.42-1.83-1.37zm2.23 6.9 1.84-2.43-.91-.67 1.84-2.42-1.84-1.38-1.84 2.42.92.69-1.84 2.42.91.68-1.84 2.42 1.84 1.37 1.84-2.42-.92-.69zm3.16 0 1.84-2.43-.91-.68 1.84-2.42-1.83-1.37-1.85 2.42.92.69-1.84 2.42.92.68-1.85 2.42 1.84 1.37 1.84-2.42-.92-.69z" fill="#0073bc"/></svg>

<!-- by TradingView --><svg width="18" height="18" viewBox="0 0 18 18" xmlns="http://www.w3.org/2000/svg"><path fill="#F0F3FA" d="M0 0h18v18H0z"/><path d="m5.84 4 1.84 1.37-1.85 2.42L4 6.42 5.84 4Zm2.23 6.9 1.84-2.43L9 7.8l1.84-2.42L9 4 7.16 6.42l.92.69-1.84 2.42.91.68-1.84 2.42L7.15 14l1.84-2.42-.92-.69Zm3.16 0 1.84-2.43-.91-.68L14 5.37 12.17 4l-1.85 2.42.92.69L9.4 9.53l.92.68-1.85 2.42L10.31 14l1.84-2.42-.92-.69Z" fill="#0073BC"/></svg>
